X:1
T: Oh! Hag you have killed me
C:
R:Jig
Q:180
K:D
M:6/8
L:1/16
D4d2 c2A2G2|F6 G2E2A2|D2G2E2 E2F2D2|A2G2E2 E2F2D2|D4d2 c2A2c2|d2c2A2 G2E2A2|D2E2D2 D2E2D2|D2E2D2 D2E2D2|
D4d2 c2A2G2|F6 G2E2A2|D2G2E2 E2F2D2|A2G2E2 E2F2D2|D4d2 c2A2c2|d2c2A2 G2E2A2|D2E2D2 D2E2D2|D2E2D2 D2E2D2|
A2B2A2 G2A2G2|F2D2F2 G2E2A2|D2G2E2 E2F2D2|A2G2E2 E2F2D2|ABc2A2 d2A2G2|F2D2F2 G2E2A2|D2E2D2 D2E2D2|D2E2D2 D2E2D2|
A2B2A2 G2A2G2|F2D2F2 G2E2A2|D2G2E2 E2F2D2|A2G2E2 E2F2D2|ABc2A2 d2A2G2|F2D2F2 G2E2A2|D2E2D2 D2E2D2|D2E2D2 D2E2D2||

